X:1
T:Mariage D' Amour
%%score 1 2
L:1/8
Q:1/4=78
M:5/4
K:Bb
V:1 treble nm="Piano"
V:2 treble nm="Piano"
V:1
 z/ g/g/a/ a/b/b/a/ a/g/g/d/ d/B/B/G/ G/B/B/f/ |[M:4/4] f/e/e/d/ e/f/e/d/ e2 z2 | %2
 z/ e/e/f/ f/g/g/a/ a/f/f/c/ c/e/e/c/ | e/d/d/c/ d/e/d/c/ d2 z2 | %4
[M:5/4] z/ g/g/a/ a/b/b/a/ a/g/g/d/ d/B/B/G/ G/B/B/f/ |[M:4/4] f/e/e/d/ e/f/e/d/ e4 | %6
 z/ e/e/f/ f/g/g/a/ a/f/f/c/ c/e/e/c/ |[M:3/4] e/d/d/c/ d/e/d/c/ d2 | %8
[M:4/4] dG/B/ c/d/c/B/ dG/B/ c/d/c/B/ | eG/c/ d/e/d/c/ eG/c/ de |{/A} f>g f>g f2- ff/g/ | %11
 d3 d/e/ d/c/B/A/ G/^F/G/A/ | dG/B/ c/d/c/B/ dG/B/ c/d/c/B/ | eG/c/ d/e/d/c/ eG/c/ de | %14
 f>g f>g f3 f/g/ | d3 d/e/ d/c/B/A/ G/^F/B/c/ | d4 d'4 | %17
[M:5/4] z/ g/g/a/ a/b/b/a/ a/g/g/d/ d/B/B/G/ G/B/B/f/ |[M:4/4] f/e/e/d/ e/f/e/d/ e2 z2 | %19
 z/ e/e/f/ f/g/g/a/ a/f/f/c/ c/e/e/c/ | e/d/d/c/ d/e/d/c/ d2 z2 | %21
[M:5/4] z/ g/g/a/ a/b/b/a/ a/g/g/d/ d/B/B/G/ G/B/B/f/ |[M:4/4] f/e/e/d/ e/f/e/d/ e2 z2 | %23
 z/ e/e/f/ f/g/g/a/ a/f/f/c/ c/e/e/c/ | e/d/d/c/ d/e/d/c/ d4 | dG/B/ c/d/c/B/ dG/B/ c/d/c/B/ | %26
 eG/c/ d/e/d/c/ eG/c/ de |{/A} f>g f>g f2- ff/g/ | d3 d/e/ d/c/B/A/ G/^F/G/F/ | %29
 dG/B/ c/d/c/B/ dG/B/ c/d/c/B/ | eG/c/ d/e/d/c/ eG/c/ de |{/A} f>g f>g f2- ff/g/ | %32
 d3 c'/e'/ d'/c'/d'/e'/ d'2 | bdde ec ca/g/ | acce dB Bg/f/ | gBBc cAdc | d2 Ac d^f a2 | %37
 bdde ec ca/g/ | acce dB Bg/f/ | gBBc cAdc |[M:5/4] d8 z2 | %41
 z/ g/g/a/ a/b/b/a/ a/g/g/d/ d/B/B/G/ G/B/B/f/ |[M:4/4] f/e/e/d/ e/f/e/d/ e2 z2 | %43
 z/ e/e/f/ f/g/g/a/ a/f/f/c/ c/e/e/c/ | e/d/d/c/ d/e/d/c/ d2 z2 | %45
[M:5/4] z/ g/g/a/ a/b/b/a/ a/g/g/d/ d/B/B/G/ G/B/B/f/ |[M:4/4] f/e/e/d/ e/f/e/d/ e2 z2 | %47
 z/ e/e/f/ f/g/g/a/ a/f/f/c/ c/e/e/c/ | e/d/d/c/ d/e/d/c/ d4 | dG/B/ c/d/c/B/ dG/B/ c/d/c/B/ | %50
 eG/c/ d/e/d/c/ eG/c/ de | f>g f>g f3 f'/g'/ | d'3 d'/e'/ d'/c'/b/a/ g/^f/a/f/ | %53
 dG/B/ c/d/c/B/ dG/B/ c/d/c/B/ | eG/c/ d/e/d/c/ eG/c/ de | f>g f>g f3 f/g/ | %56
 d3 d/e/ d/c/B/A/ G/^F/G/A/ | d4 d'4 | bdde ec ca/g/ | acce dB Bg/f/ | gBBc cA Ad/c/ | d4 ^f2 a2 | %62
 bdde ec ca/g/ | acce dB Bg/f/ | gBBc cAdc | [^Fd]8 | %66
[M:5/4] z/ g/g/a/ a/b/b/a/ a/g/g/d/ d/B/B/G/ G/B/B/f/ |[M:4/4] f/e/e/d/ e/f/e/d/ e4 | %68
 z/ e/e/f/ f/g/g/a/ a/f/f/c/ c/e/e/c/ | e/d/d/c/ d/e/d/c/ d4 | %70
[M:5/4] z/ g/g/a/ a/b/b/a/ a/g/g/d/ d/B/B/G/ G/B/B/f/ |[M:4/4] f/e/e/d/ e/f/e/d/ e4 | %72
 z/ e/e/f/ f/g/g/a/ a/f/f/c/ c/e/e/c/ | e/d/d/c/ d/e/d/c/ d4 |] %74
V:2
 [G,D]8 z2 |[M:4/4] [CG]8 | [F,C]8 | [B,F]4 [DA]4 |[M:5/4][K:bass] [G,,D,]8 z2 |[M:4/4] [C,G,]8 | %6
 [F,,C,]8 |[M:3/4] [B,,F,]4 D,2 |[M:4/4] G,8 | C,8 | F,,8 | B,,4 D,,4 | G,,4 D,4 | C,4 G,4 | %14
 F,,4 z/[K:treble] c/f/c/ A2 | B,,4 D,4 | D,4 z4 |[M:5/4] [G,D]8 z2 |[M:4/4][K:treble] [CG]8 | %19
 [F,C]8 | [B,F]4 [DA]4 |[M:5/4] [G,D]8 z2 |[M:4/4][K:bass] [C,G,]8 | [F,C]8 | [B,,F,]4 D,4 | %25
 [G,,D,]8 | [C,G,]8 | F,,4 C,4 | B,,4 D,,4 | G,,4 D,4 | C,4 G,4 | F,,4 z/[K:treble] c/f/c/ A2 | %32
 B,,4 D,4 | G,,4 C,4 | F,,4 B,,4 | G,,4 A,,4 | D,,8 | G,,4 C,4 | F,,4 B,,4 | G,,4 A,,4 | %40
[M:5/4] D,8 z2 | [G,D]8 z2 |[M:4/4][K:treble] [CG]8 | [F,C]8 | [B,F]4 [DA]4 |[M:5/4] [G,D]8 z2 | %46
[M:4/4][K:bass] [C,G,]8 | [F,C]8 | [B,,F,]4 D,4 | G,8 | C,8 | F,,8 | B,,4 D,,4 | G,,4 D,4 | %54
 C,4 G,4 | F,,4 z/[K:treble] c/f/c/ A2 | B,,4 D,4 | D,8 | G,,4 C,4 | F,,4 B,,4 | G,,4 A,,4 | D,8 | %62
 G,,4 C,4 | F,,4 B,,4 | G,,4 A,,4 | D,8 |[M:5/4] [G,D]8 z2 |[M:4/4][K:treble] [CG]8 | [F,C]8 | %69
 [B,F]4 [DA]4 |[M:5/4][K:bass] [G,,D,]8 z2 |[M:4/4] [C,G,]8 | [F,,C,]8 | [B,,F,]4 D,4 |] %74

